X: 021637
T: Brother Gildas'
S: B.Breathnach:"Ceol Rince na hEireann" IV/23 (gan ainm) 
Z: B.Black
N: No repeats
L: 1/8
M: 6/8
R: jig
K: D
AFA DFA|dcB AFD|GAG FAd|cde fdA|
gfe fed|cdc BFD|GFE FED|DFA d3 ||
FGA BAG|FAd fed|ceg gfe|dfd AFA|
BGB efg|AFA def|ABA GFE|DFA d3 ||
